X:1
T:Praise the Lord for Victory
T:Praise the Lord for Victory
T:Homer Alexander Hammontree
T:Roger Mills Hickman, 1916
T:Public Domain Courtesy of the Cyber Hymnal™
T:Public Domain Courtesy of the Cyber Hymnal™
C:Homer Alexander Hammontree
Z:Public Domain
Z:Courtesy of the Cyber Hymnal™
%%score ( 1 2 ) ( 3 4 )
L:1/8
Q:1/4=96
M:4/4
K:G
V:1 treble 
V:2 treble 
V:3 bass 
V:4 bass 
V:1
 [DG]>[GA] | [GB]>[GB] [GB]>[Gc] [GB]2 [GB]>[GA] | [EG]>[EA] [EG]>[CE] [B,D]2 [DG]>[GA] | %3
w: 1.~There’s a|song with- in my heart, I am|sing- ing ev- ery day, Since the|
w: 2.~All the|fear of sin and death, All the|ter- rors of the grave, Were for-|
w: 3.~In the|dark- ened shades of night, When the|temp- ter shall as- sail, I may|
w: 4.~Yes, I|know in whom I trust, And I|know He will up- hold, For His|
 [GB]2 [Gd]2 [FA]2 [FA][GB] | [FA]2 [Fd]2 [Gd]2 [DG]>[GA] | [GB]>[GB] [GB]>[Gc] [GB]2 [GB]>[GA] | %6
w: Lord has washed all my|sins a- way; With His|power to o- ver- come, For His|
w: ev- er lost when His|life He gave; For He|rose a- gain to life And is|
w: fly to Him who will|ne- ver fail; He has|prom- ised if we trust, We may|
w: love is true, and His|power un- told; We shall|reign with Him as kings, When His|
 [EG]>[Gc] [Gc]>[Gc] !fermata![Gc]2 [Ge][Ge] | [Gd]3 [Gc] [GB]2 A2 | [DG]6 || %9
w: glo- ry I can say, Praise the|Lord for vic- to-|ry!|
w: a- ble now to save, Praise the|Lord for vic- to-|ry!|
w: in His name pre- vail, Praise the|Lord for vic- to-|ry!|
w: glo- ry shall un- fold, Praise the|Lord for vic- to-|ry!|
"^Refrain" (3(G[FA])[=FB] | [Ec]>[Ec] [Ec]>[Ec] [Ec]2 (3([CE][EG])[_EA] | %11
w: ||
w: There * is|vic- tory ev- ery day, There * is|
w: ||
w: ||
 [DB]>[DB] [DB]>[DB] [DB]2 [GB]>[Ac] | [GB]2 [Gd]2 [FA]2 [FA]>[GB] | [FA]2 [Fd]2 [Gd]2 [DG]>[GA] | %14
w: |||
w: vic- tory all the way, Let us|shout and sing, Let His|prais- es ring! Since my|
w: |||
w: |||
 [GB]>[GB] [GB]>[Gc] [GB]2 [GB]>[GA] | [EG][Ec][Ec][Ec] !fermata![Ec]2 [Ge][Ge] | %16
w: ||
w: sins are washed a- way, I’m re-|joic- ing ev- ery day, Praise the|
w: ||
w: ||
 [Gd]3 [Gd] [Fd]2 [Fd]2 | G4 |] %18
w: ||
w: Lord for vic- to-|ry!|
w: ||
w: ||
V:2
 x2 | x8 | x8 | x8 | x8 | x8 | x8 | x6 (FD) | x6 || G x | x8 | x8 | x8 | x8 | x8 | x8 | x8 | G4 |] %18
V:3
 [G,B,]>[G,C] | [G,D]>[G,D] [G,D]>[G,E] [G,D]2 [G,D]>[G,C] | %2
 [C,C]>[C,C] [C,C]>[C,G,] [G,,G,]2 [G,B,]>[G,C] | [G,D]2 [B,,D]2 [D,D]2 [D,D][D,D] | %4
 [D,D]2 [D,A,]2 [G,B,]2 [G,B,]>[G,C] | [G,D]>[G,D] [G,D]>[G,E] [G,D]2 [G,D]>[G,C] | %6
 [C,C]>[C,E] [C,E]>[C,E] !fermata![C,E]2 [C,C][^C,^A,] | [D,B,]3 [D,E] [D,D]2 [D,C]2 | [G,,B,]6 || %9
 (3(B,C)[G,D] | [C,C]>[C,G,] [C,G,]>[C,G,] [C,G,]2 (3:2:2[C,G,]2 [C,G,] | %11
 [G,,G,]>[G,,G,] [B,,G,]>[D,G,] G,2 [G,D]>[G,D] | [G,D]2 [B,,D]2 [D,D]2 [D,D]>[D,D] | %13
 [D,D]2 [D,A,]2 [G,B,]2 [G,B,]>[G,C] | [G,D]>[G,D] [G,D]>[G,E] [G,D]2 [G,D]>[G,C] | %15
 [C,C][C,E][C,E][C,E] !fermata![C,E]2 [C,C][^C,^A,] | [D,B,]3 [D,B,] [D,C]2 [D,C]2 | [G,B,]4 |] %18
V:4
 x2 | x8 | x8 | x8 | x8 | x8 | x8 | x8 | x6 || G,2 | x8 | x4 G,2 x2 | x8 | x8 | x8 | x8 | x8 | %17
 x4 |] %18

